dist/svgs/crypto-icons/icons/kore.svg

<?xml version="1.0" encoding="UTF-8" standalone="yes"?>
<svg xmlns="http://www.w3.org/2000/svg" xmlns:xlink="http://www.w3.org/1999/xlink" width="512px" height="512px" viewBox="0 0 384 384" version="1.1">
  <g id="surface1">
    <path style=" stroke:none;fill-rule:nonzero;fill:rgb(0%,0%,0%);fill-opacity:1;" d="M 191.789062 -0.0546875 C 85.839844 -0.0546875 -0.046875 85.835938 -0.046875 191.777344 C -0.046875 297.726562 85.839844 383.621094 191.789062 383.621094 C 297.734375 383.621094 383.621094 297.730469 383.621094 191.777344 C 383.621094 85.835938 297.734375 -0.0546875 191.789062 -0.0546875 Z M 301.40625 191.777344 C 301.40625 226.933594 284.804688 258.15625 259.070312 278.207031 L 246.480469 258.234375 C 265.65625 242.441406 277.917969 218.5625 277.917969 191.773438 C 277.917969 163.0625 263.820312 137.683594 242.214844 122.039062 L 258.320312 104.753906 C 284.488281 124.789062 301.40625 156.28125 301.40625 191.777344 Z M 224.035156 141.558594 C 240.570312 152.171875 251.550781 170.664062 251.550781 191.777344 C 251.550781 209.164062 244.117188 224.785156 232.265625 235.691406 L 193.550781 174.28125 Z M 252.773438 44.582031 L 160.101562 142.589844 L 173.238281 45.371094 L 128.933594 45.371094 C 148.21875 37.078125 169.460938 32.46875 191.789062 32.46875 C 213.394531 32.472656 233.984375 36.789062 252.773438 44.582031 Z M 94.648438 242.5625 C 86.429688 226.898438 82.148438 209.46875 82.171875 191.777344 C 82.171875 162.925781 93.367188 136.710938 111.597656 117.140625 Z M 32.476562 191.777344 C 32.476562 129.316406 68.441406 75.289062 120.777344 49.175781 L 117.679688 72.09375 C 77.660156 96.921875 51 141.222656 51 191.777344 C 51 228.734375 65.292969 262.304688 88.585938 287.414062 L 85.480469 310.410156 C 52.953125 281.242188 32.476562 238.90625 32.476562 191.777344 Z M 103.75 324.546875 L 135.519531 324.546875 L 152.15625 201.4375 L 153.515625 201.605469 L 231.027344 324.546875 L 279.832031 324.546875 C 254.605469 341.3125 224.351562 351.097656 191.789062 351.097656 C 159.234375 351.097656 128.96875 341.3125 103.75 324.546875 Z M 285.691406 320.445312 L 275.78125 304.71875 C 310.234375 279.0625 332.574219 238.042969 332.574219 191.777344 C 332.574219 147.28125 311.910156 107.636719 279.671875 81.835938 L 292.34375 68.238281 C 328.191406 97.449219 351.09375 141.929688 351.09375 191.777344 C 351.097656 244.636719 325.335938 291.464844 285.691406 320.445312 Z M 285.691406 320.445312 "/>
  </g>
</svg>

<svg xmlns="http://www.w3.org/2000/svg" viewBox="0 0 384 384"><path d="M191.79-.055C85.84-.055-.048 85.835-.048 191.777c0 105.95 85.887 191.844 191.836 191.844 105.945 0 191.832-85.89 191.832-191.844C383.621 85.836 297.734-.055 191.79-.055zm109.616 191.832c0 35.157-16.601 66.38-42.336 86.43l-12.59-19.973c19.176-15.793 31.438-39.671 31.438-66.46 0-28.712-14.098-54.09-35.703-69.735l16.105-17.285c26.168 20.035 43.086 51.527 43.086 87.023zm-77.37-50.218c16.534 10.613 27.515 29.105 27.515 50.218 0 17.387-7.434 33.008-19.285 43.914l-38.715-61.41zm28.737-96.977l-92.671 98.008 13.136-97.219h-44.304c19.285-8.293 40.527-12.902 62.855-12.902 21.606.004 42.195 4.32 60.984 12.113zM94.648 242.562a108.992 108.992 0 01-12.476-50.785c0-28.851 11.195-55.066 29.426-74.636zm-62.171-50.785c0-62.46 35.964-116.488 88.3-142.601l-3.097 22.918C77.66 96.922 51 141.223 51 191.777c0 36.957 14.293 70.528 37.586 95.637L85.48 310.41c-32.527-29.168-53.003-71.504-53.003-118.633zm71.273 132.77h31.77l16.636-123.11 1.36.168 77.511 122.942h48.805c-25.227 16.765-55.48 26.55-88.043 26.55-32.555 0-62.82-9.784-88.039-26.55zm181.941-4.102l-9.91-15.726c34.453-25.656 56.793-66.676 56.793-112.942 0-44.496-20.664-84.14-52.902-109.941l12.672-13.598c35.847 29.211 58.75 73.692 58.75 123.54.004 52.859-25.758 99.687-65.403 128.667zm0 0"/></svg>
